icon-themes/colibre_dark_svg/svx/res/doc_modified_feedback.svg

<svg viewBox="0 0 14 10" xmlns="http://www.w3.org/2000/svg"><path d="m11.5 10a.50005.50005 0 0 0 .5-.5v-9a.50005.50005 0 0 0 -.5-.5h-2.5-4-2.5a.50005.50005 0 0 0 -.5.5v7a.50005.50005 0 0 0 .146484.3535156l2.0000004 2a.50005.50005 0 0 0 .3535156.1464844h1.5 3zm-.5-1h-1v-2c0-.554-.446-1-1-1h-3c-.554 0-1 .446-1 1v2h-.2929688l-1.7070312-1.7070312v-6.2929688h1v2c0 .554.446 1 1 1h4c.554 0 1-.446 1-1v-2h1zm-2 0h-2v-2h2zm0-6h-4v-2h4z" fill="#fafafa"/></svg>

<?xml version="1.0" encoding="UTF-8" standalone="no"?>
<svg
   viewBox="0 0 18 18"
   version="1.1"
   id="svg260"
   sodipodi:docname="doc_modified_feedback.svg"
   width="18"
   height="18"
   inkscape:version="1.2.2 (b0a8486541, 2022-12-01)"
   inkscape:export-filename="doc_modified_feedback.png"
   inkscape:export-xdpi="90"
   inkscape:export-ydpi="90"
   xmlns:inkscape="http://www.inkscape.org/namespaces/inkscape"
   xmlns:sodipodi="http://sodipodi.sourceforge.net/DTD/sodipodi-0.dtd"
   xmlns="http://www.w3.org/2000/svg"
   xmlns:svg="http://www.w3.org/2000/svg">
  <defs
     id="defs264" />
  <sodipodi:namedview
     id="namedview262"
     pagecolor="#505050"
     bordercolor="#ffffff"
     borderopacity="1"
     inkscape:showpageshadow="0"
     inkscape:pageopacity="0"
     inkscape:pagecheckerboard="1"
     inkscape:deskcolor="#505050"
     showgrid="false"
     inkscape:zoom="23.6"
     inkscape:cx="6.970339"
     inkscape:cy="5"
     inkscape:window-width="1353"
     inkscape:window-height="458"
     inkscape:window-x="231"
     inkscape:window-y="91"
     inkscape:window-maximized="0"
     inkscape:current-layer="svg260" />
  <g
     id="g542"
     transform="matrix(1.8,0,0,1.8,-3.6,0)"
     style="stroke-width:0.555556">
    <path
       d="M 11.5,10 A 0.50005,0.50005 0 0 0 12,9.5 v -9 A 0.50005,0.50005 0 0 0 11.5,0 H 9 5 2.5 A 0.50005,0.50005 0 0 0 2,0.5 v 7 a 0.50005,0.50005 0 0 0 0.146484,0.3535156 l 2.0000004,2 A 0.50005,0.50005 0 0 0 4.5,10 H 6 9 Z M 11,9 H 10 V 7 C 10,6.446 9.554,6 9,6 H 6 C 5.446,6 5,6.446 5,7 V 9 H 4.7070312 L 3,7.2929688 V 1 H 4 V 3 C 4,3.554 4.446,4 5,4 H 9 C 9.554,4 10,3.554 10,3 V 1 h 1 z M 9,9 H 7 V 7 H 9 Z M 9,3 H 5 V 1 h 4 z"
       fill="#fafafa"
       id="path258"
       style="stroke-width:0.414087" />
  </g>
</svg>
